X: 179
T: Bank Of Turf
R: jig
M: 6/8
L: 1/8
K: Dmaj
dcB|:ABA DFA|BAF DFA|dcd ede|~f3 def|
~g3 gab|1afd Bcd|efe e2d|cBA dcB:|
:|2afd ~B3|ABc dfe|d3 dcd||
|:eAA efg|fdd fga|gfe fed|edB ABd|
eAA efg|fdd fga|gfe dcB|1A3 Acd:|2A3 dcB||

